lib/preview/nrk-logo-preview-nrk-yr-radio.svg

<svg width="54" height="20" viewBox="0 0 54 20" fill="none" xmlns="http://www.w3.org/2000/svg">
<path d="M0 15.9824V3.98351H3.93719V15.9824H0ZM9.29381 5.8932L11.5581 15.9824H7.24917L4.54549 3.98351H6.96218C7.51635 3.97632 8.05406 4.17167 8.4745 4.53281C8.89562 4.8788 9.18495 5.35912 9.29381 5.8932ZM12.1495 15.9824V3.98351H16.0867V15.9824H12.1495ZM19.0605 8.54652C18.6362 8.55066 18.2188 8.43965 17.8525 8.22539C17.4912 8.01654 17.1911 7.71638 16.9823 7.35502C16.7678 6.98875 16.6568 6.57118 16.661 6.14674C16.6561 5.72488 16.7672 5.3098 16.9823 4.94685C17.1933 4.58941 17.4931 4.29252 17.8525 4.08494C18.2189 3.87092 18.6362 3.75994 19.0605 3.76381C19.4822 3.75926 19.8971 3.87035 20.2602 4.08494C20.616 4.29433 20.9127 4.59098 21.122 4.94685C21.3368 5.3099 21.4479 5.72492 21.4433 6.14674C21.4473 6.57115 21.3363 6.98865 21.122 7.35502C20.9149 7.7148 20.6179 8.0147 20.2602 8.22539C19.8971 8.4404 19.4819 8.55151 19.0599 8.54652H19.0605ZM22.0516 15.9824V3.98351H25.9892V15.9824H22.0516ZM30.9737 10.5407C30.9848 10.5523 31.0693 10.6903 31.2272 10.9547C31.3851 11.2191 31.5906 11.5571 31.8439 11.9687C32.0974 12.3801 32.3649 12.8167 32.6463 13.2784C32.9278 13.7402 33.1926 14.1768 33.4408 14.5882C33.6881 14.9996 33.9697 15.4643 34.2857 15.9824H29.9598C29.6893 15.543 29.4441 15.1459 29.2245 14.791C29.0048 14.4361 28.7713 14.053 28.5238 13.6418C28.2758 13.2309 28.0306 12.831 27.7882 12.4419C27.5458 12.0528 27.3375 11.712 27.1633 11.4195C26.9883 11.1267 26.8671 10.9295 26.7997 10.828C26.6325 10.5759 26.5336 10.2847 26.5127 9.98297C26.5294 9.69336 26.6226 9.4134 26.7828 9.17153C26.8504 9.05887 26.9743 8.85885 27.1545 8.57155C27.3348 8.28426 27.546 7.94348 27.7882 7.54915C28.0304 7.15482 28.2756 6.75203 28.5238 6.3408C28.772 5.92957 29.0056 5.54366 29.2245 5.18313C29.4445 4.82297 29.6897 4.42301 29.9598 3.98324H34.2857L30.9396 9.44192C30.8361 9.60399 30.7777 9.79077 30.7706 9.98297C30.7818 10.1847 30.8522 10.3787 30.9731 10.5407H30.9737Z" fill="white"/>
<path d="M48.4904 8.12729H47.2392C47.0518 8.1298 46.8728 8.20535 46.7403 8.33788C46.6079 8.47042 46.5324 8.64946 46.5299 8.83684V10.651C46.7545 10.5515 46.9943 10.4906 47.2392 10.4707H48.6187C48.7838 10.4788 48.9488 10.4536 49.104 10.3966C49.2591 10.3396 49.4012 10.252 49.5218 10.1389C49.6347 10.0183 49.7223 9.87615 49.7793 9.72103C49.8362 9.5659 49.8615 9.40092 49.8536 9.23584C49.8615 9.08552 49.8341 8.93542 49.7738 8.79751C49.7134 8.65961 49.6218 8.53767 49.506 8.44141C49.2137 8.22304 48.855 8.11211 48.4904 8.12729Z" fill="white"/>
<path d="M44.857 1.12524C42.508 1.12524 40.2552 2.0584 38.5942 3.71942C36.9331 5.38043 36 7.63323 36 9.98225C36 12.3313 36.9331 14.5841 38.5941 16.2452C40.2551 17.9062 42.508 18.8395 44.857 18.8395C47.2061 18.8395 49.459 17.9064 51.12 16.2453C52.7811 14.5842 53.7143 12.3314 53.7143 9.98225C53.7142 7.6332 52.781 5.38038 51.12 3.71938C49.4589 2.05838 47.206 1.12524 44.857 1.12524ZM44.1901 11.5871C44.1837 13.4793 42.8271 14.081 42.3098 14.3819L41.4183 13.3035L41.439 13.2932L41.4183 13.2686C41.705 13.1251 42.7699 12.5787 42.7699 11.7417V11.1099C42.6233 11.4074 41.8646 11.7442 41.3486 11.7528H41.2916C40.5574 11.7538 39.8494 11.4801 39.3068 10.9855C39.0212 10.7087 38.7966 10.3753 38.6473 10.0066C38.4981 9.63797 38.4276 9.24219 38.4402 8.84467V6.93672H39.8242V8.84467C39.8242 9.9546 40.5918 10.3589 41.3204 10.3691C41.9583 10.3603 42.7583 10.0837 42.7859 9.22876V6.93564H44.1887L44.1901 11.5871ZM50.2003 12.7618C50.2767 12.8417 50.3726 12.9003 50.4786 12.9319C50.5845 12.9635 50.6969 12.9669 50.8045 12.9418L50.8026 14.089H49.9631C49.9534 14.089 49.944 14.0907 49.9355 14.0907C49.9269 14.0907 49.9158 14.0907 49.9059 14.089H49.8749V14.0874C49.7113 14.0738 49.5574 14.004 49.4394 13.8899L47.806 11.8891H47.2406C47.0531 11.8916 46.8741 11.9672 46.7416 12.0998C46.6091 12.2324 46.5337 12.4115 46.5313 12.5989V14.089H45.1128V8.83667C45.1135 8.27245 45.3379 7.73152 45.7367 7.33242C46.1355 6.93333 46.6763 6.70859 47.2406 6.7075H48.4918C49.1872 6.69062 49.8667 6.91679 50.4133 7.34707C50.6888 7.5771 50.9092 7.86602 51.0582 8.19254C51.2072 8.51906 51.2811 8.87487 51.2743 9.23372C51.2823 9.58544 51.2203 9.93524 51.0919 10.2628C50.9635 10.5903 50.7712 10.8891 50.5264 11.1417C50.2182 11.4472 49.8363 11.6678 49.4178 11.7824C49.4178 11.7824 49.8967 12.4366 50.2003 12.7607V12.7618Z" fill="white"/>
</svg>

<svg xmlns="http://www.w3.org/2000/svg" viewBox="0 0 54 20"><path fill="#fff" d="M0 15.982V3.984h3.937v11.998H0ZM9.294 5.893l2.264 10.09H7.25l-2.704-12h2.417a2.276 2.276 0 0 1 1.513.55c.42.346.71.826.819 1.36Zm2.855 10.09v-12h3.938v12h-3.938Zm6.912-7.436a2.382 2.382 0 0 1-2.4-2.4 2.301 2.301 0 0 1 .321-1.2 2.41 2.41 0 0 1 3.278-.862c.356.21.653.506.862.862.215.363.326.778.321 1.2a2.35 2.35 0 0 1-.321 1.208 2.4 2.4 0 0 1-.862.87 2.302 2.302 0 0 1-1.2.322Zm2.99 7.435V3.984h3.938v11.998h-3.937Zm8.923-5.441c.01.011.095.15.253.414s.364.602.617 1.014a315.936 315.936 0 0 1 1.597 2.62c.247.41.529.875.845 1.393H29.96c-.27-.439-.516-.836-.736-1.191-.22-.355-.453-.738-.7-1.15-.248-.41-.493-.81-.736-1.2-.242-.388-.45-.729-.625-1.022-.175-.292-.296-.49-.363-.591a1.747 1.747 0 0 1-.287-.845c.016-.29.11-.57.27-.811.067-.113.191-.313.371-.6a182.106 182.106 0 0 0 1.37-2.23l.7-1.159.736-1.2h4.326L30.94 9.442a1.08 1.08 0 0 0-.17.541c.012.202.082.396.203.558ZM48.49 8.127h-1.25a.72.72 0 0 0-.71.71v1.814c.224-.1.464-.16.71-.18h1.379a1.232 1.232 0 0 0 .903-.332 1.235 1.235 0 0 0 .332-.903.968.968 0 0 0-.348-.795 1.587 1.587 0 0 0-1.016-.314Z"/><path fill="#fff" d="M44.857 1.125a8.857 8.857 0 1 0 0 17.714 8.857 8.857 0 0 0 0-17.714Zm-.667 10.462c-.006 1.892-1.363 2.494-1.88 2.795l-.892-1.079.021-.01-.02-.024c.286-.144 1.35-.69 1.35-1.527v-.632c-.146.297-.904.634-1.42.643h-.057a2.94 2.94 0 0 1-1.985-.768 2.856 2.856 0 0 1-.867-2.14V6.937h1.384v1.908c0 1.11.768 1.514 1.496 1.524.638-.009 1.438-.285 1.466-1.14V6.936h1.403l.001 4.651Zm6.01 1.175a.637.637 0 0 0 .604.18l-.001 1.147h-.84l-.028.002c-.008 0-.02 0-.03-.002h-.03v-.002a.711.711 0 0 1-.436-.197l-1.633-2h-.565a.719.719 0 0 0-.71.709v1.49h-1.418V8.837a2.132 2.132 0 0 1 2.128-2.13h1.25a2.99 2.99 0 0 1 1.922.64 2.399 2.399 0 0 1 .861 1.887 2.654 2.654 0 0 1-.748 1.908 2.52 2.52 0 0 1-1.108.64s.479.655.782.979Z"/></svg>
